austria/municipalities/10709.svg

<?xml version="1.0" encoding="UTF-8" standalone="no"?>
<!-- Created with Inkscape (http://www.inkscape.org/) -->
<svg
   xmlns:svg="http://www.w3.org/2000/svg"
   xmlns="http://www.w3.org/2000/svg"
   version="1.0"
   width="204.375"
   height="236.59375"
   id="svg3734">
  <defs
     id="defs3736" />
  <g
     transform="translate(-129.52852,-230.08998)"
     id="layer1">
    <path
       d="M 131.52852,232.08998 L 131.68477,364.65248 C 131.68477,420.07601 176.29248,464.68375 231.71602,464.68373 C 287.13955,464.68373 331.74729,420.076 331.74727,364.65248 L 331.90352,232.08998 L 131.52852,232.08998 z"
       id="rect4346"
       style="opacity:1;fill:#379ae4;fill-opacity:1;stroke:#000000;stroke-width:4;stroke-linecap:round;stroke-linejoin:miter;stroke-miterlimit:4;stroke-dasharray:none;stroke-dashoffset:0;stroke-opacity:1" />
    <path
       d="M 131.53125,232.09375 L 131.6875,364.65625 C 131.6875,419.58936 175.50924,463.87642 230.25,464.65625 L 230.25,232.09375 L 131.53125,232.09375 z"
       id="rect4352"
       style="opacity:1;fill:#ee2b2b;fill-opacity:1;stroke:#000000;stroke-width:1;stroke-linecap:round;stroke-linejoin:miter;stroke-miterlimit:4;stroke-dasharray:none;stroke-dashoffset:0;stroke-opacity:1" />
    <path
       d="M 295.53054,295.03489 C 295.53054,295.03489 309.10329,310.70819 309.58803,312.32399 C 310.07277,313.93979 302.47849,347.87168 302.15533,348.19484 C 301.83217,348.518 292.46051,341.24688 292.46051,341.24688 L 295.53054,295.03489 z"
       id="path4258"
       style="fill:#ffffff;fill-opacity:1;fill-rule:evenodd;stroke:#000000;stroke-width:1px;stroke-linecap:butt;stroke-linejoin:miter;stroke-opacity:1" />
    <path
       d="M 263.37604,325.73516 C 263.37604,325.73516 252.71173,334.4605 252.71173,335.42999 C 252.71173,336.39947 256.91282,371.94716 259.33653,371.78557 C 261.76023,371.62399 269.67767,365.32236 269.67767,365.32236 L 263.37604,325.73516 z"
       id="path4260"
       style="fill:#ffffff;fill-opacity:1;fill-rule:evenodd;stroke:#000000;stroke-width:1px;stroke-linecap:butt;stroke-linejoin:miter;stroke-opacity:1" />
    <path
       d="M 272.7625,259.01832 C 272.7625,263.33006 273.8257,268.92554 268.55494,280.40377 C 264.45078,289.34147 258.83417,308.91081 260.8252,328.82113 C 262.81623,348.73145 269.76909,382.5359 271.57677,386.95927 C 274.26082,393.52712 253.59249,423.01999 253.25928,422.79785 C 264.70059,421.20801 276.02361,420.20163 281.4265,395.55599 C 286.68249,428.48391 298.46945,423.14396 309.40638,422.79785 C 306.49311,423.54698 287.98276,404.59992 291.48709,387.75568 C 293.44041,378.36664 297.46019,343.95298 297.46019,335.59064 C 297.46019,327.22831 297.46019,297.36283 296.66378,291.78794 C 295.86736,286.21305 294.67274,277.85071 291.08889,272.67403 C 287.50503,267.49734 282.62765,256.19791 282.62765,256.19791 L 277.15166,262.71887 L 272.7625,259.01832 z"
       id="blub"
       style="fill:#ffffff;fill-opacity:1;fill-rule:evenodd;stroke:#000000;stroke-width:1px;stroke-linecap:butt;stroke-linejoin:miter;stroke-opacity:1" />
    <path
       d="M 291.47346,281.74689 A 4.5273242,5.9286394 0 1 1 282.41881,281.74689 A 4.5273242,5.9286394 0 1 1 291.47346,281.74689 z"
       transform="matrix(0.9415652,-0.3368309,0.3368309,0.9415652,-77.486641,113.11615)"
       id="path4256"
       style="fill:#ffffff;fill-opacity:1;stroke:#000000;stroke-width:1;stroke-linecap:round;stroke-linejoin:miter;stroke-miterlimit:4;stroke-dasharray:none;stroke-dashoffset:0;stroke-opacity:1" />
    <path
       d="M 265.83956,288.10536 C 272.56918,297.18077 286.73237,299.73547 296.67542,293.5958"
       id="path4262"
       style="fill:#ffffff;fill-opacity:1;fill-rule:evenodd;stroke:#000000;stroke-width:1px;stroke-linecap:butt;stroke-linejoin:miter;stroke-opacity:1" />
    <path
       d="M 263.09434,298.63935 C 266.03695,306.90031 276.06633,308.46009 277.6504,296.1495 C 277.26812,306.5984 289.22762,313.93769 289.39739,296.40487 C 290.52193,305.13221 294.32503,311.72517 297.12232,300.04388"
       id="path4264"
       style="fill:#ffffff;fill-opacity:1;fill-rule:evenodd;stroke:#000000;stroke-width:1px;stroke-linecap:butt;stroke-linejoin:miter;stroke-opacity:1" />
    <path
       d="M 260.31876,318.06293 C 265.2103,324.54213 271.58508,322.4584 271.22827,305.02641 C 271.05981,322.5287 282.13109,328.81323 281.86333,306.19283 C 280.91878,323.69906 294.50014,331.34089 297.30131,310.6527"
       id="path4266"
       style="fill:#ffffff;fill-opacity:1;fill-rule:evenodd;stroke:#000000;stroke-width:1px;stroke-linecap:butt;stroke-linejoin:miter;stroke-opacity:1" />
    <path
       d="M 260.89925,329.2448 C 262.81247,337.80405 275.58672,337.23023 274.6968,319.52379 C 273.44556,336.70682 286.07039,339.50801 287.65814,322.45055 C 287.03551,335.42709 295.10364,339.97638 297.37915,330.18554"
       id="path4268"
       style="fill:#ffffff;fill-opacity:1;fill-rule:evenodd;stroke:#000000;stroke-width:1px;stroke-linecap:butt;stroke-linejoin:miter;stroke-opacity:1" />
    <path
       d="M 261.73546,337.60695 C 263.67832,357.43062 280.52335,351.46468 279.50504,333.63493 C 278.94415,351.14789 295.29319,352.24159 296.96104,339.48844 L 296.96104,339.48844"
       id="path4270"
       style="fill:#ffffff;fill-opacity:1;fill-rule:evenodd;stroke:#000000;stroke-width:1px;stroke-linecap:butt;stroke-linejoin:miter;stroke-opacity:1" />
    <path
       d="M 264.76674,354.01768 C 266.83143,371.48223 275.90955,361.93877 273.44248,348.89586 C 274.09371,367.50716 285.2993,367.72591 284.73139,346.90985 C 282.94091,363.75009 293.55354,370.92589 295.81125,353.07694"
       id="path4272"
       style="fill:#ffffff;fill-opacity:1;fill-rule:evenodd;stroke:#000000;stroke-width:1px;stroke-linecap:butt;stroke-linejoin:miter;stroke-opacity:1" />
    <path
       d="M 266.5437,365.20207 C 270.09346,385.73505 281.09397,373.62197 279.60957,362.79795 C 280.53941,380.81318 292.61124,376.23395 294.66145,364.36585"
       id="path4274"
       style="fill:#ffffff;fill-opacity:1;fill-rule:evenodd;stroke:#000000;stroke-width:1px;stroke-linecap:butt;stroke-linejoin:miter;stroke-opacity:1" />
    <path
       d="M 269.78404,379.62678 C 273.97764,388.79046 281.79047,392.28557 281.49105,371.89179 C 282.20019,382.83338 288.42968,392.1032 292.67544,377.64077"
       id="path4276"
       style="fill:#ffffff;fill-opacity:1;fill-rule:evenodd;stroke:#000000;stroke-width:1px;stroke-linecap:butt;stroke-linejoin:miter;stroke-opacity:1" />
    <path
       d="M 272.29268,387.88441 C 278.07451,392.62448 284.31606,392.99724 291.21206,387.15272"
       id="path4278"
       style="fill:#ffffff;fill-opacity:1;fill-rule:evenodd;stroke:#000000;stroke-width:1px;stroke-linecap:butt;stroke-linejoin:miter;stroke-opacity:1" />
    <g
       id="piep"
       style="fill:#ffffff">
      <path
         d="M 177.194,373.80003 L 175.6038,423.32348 L 167.42561,424.00499 L 186.28087,429.68429 L 180.37441,425.5952 L 186.96239,425.14085 L 180.60158,423.32348 L 187.41673,420.37025 L 178.55703,422.64196 L 179.92006,371.52831 L 177.194,373.80003 z"
         id="path4301"
         style="fill:#ffffff;fill-rule:evenodd;stroke:#000000;stroke-width:1px;stroke-linecap:butt;stroke-linejoin:miter;stroke-opacity:1" />
      <path
         d="M 196.95795,356.98931 L 184.69067,396.74438 L 194.45906,424.68651 L 187.87108,425.82237 L 207.40785,430.3658 L 201.95573,426.95823 L 208.77088,425.36803 L 201.04704,424.68651 L 206.72633,421.73328 L 197.41229,424.00499 L 187.87108,396.29004 L 201.27421,354.49043 L 196.95795,356.98931 z"
         id="path4303"
         style="fill:#ffffff;fill-rule:evenodd;stroke:#000000;stroke-width:1px;stroke-linecap:butt;stroke-linejoin:miter;stroke-opacity:1" />
      <path
         d="M 212.77059,268.18393 C 212.77059,268.18393 202.65718,260.79337 199.93433,260.40439 C 197.21149,260.01541 193.7107,251.45791 185.93115,253.01382 C 178.15161,254.56973 173.0949,266.23905 173.0949,275.96348 C 173.0949,285.68791 172.31695,295.80132 172.31695,295.80132 L 176.98467,286.46587 C 176.98467,286.46587 190.98786,306.69269 190.98786,310.58246 C 190.98786,314.47223 195.26661,318.36201 186.32013,321.8628 C 177.37365,325.3636 162.20354,330.80928 161.0366,339.75576 C 159.86967,348.70224 157.92479,380.59838 157.92479,380.59838 L 166.48229,374.37474 L 168.42717,389.15588 C 168.11253,388.21197 186.52426,369.30795 194.09968,364.26133 C 199.00643,360.99253 209.41416,354.17188 209.80313,332.38915 C 210.19211,310.60642 190.2099,299.6911 185.1532,290.35564 C 180.09649,281.02019 183.20831,268.96189 183.20831,268.96189 C 183.20831,268.96189 190.59888,269.35087 193.7107,267.79496 C 196.82252,266.23905 196.82252,266.23905 196.82252,266.23905 L 212.77059,268.18393 z"
         id="path4295"
         style="fill:#ffffff;fill-opacity:1;fill-rule:evenodd;stroke:#000000;stroke-width:1px;stroke-linecap:butt;stroke-linejoin:miter;stroke-opacity:1" />
      <path
         d="M 169.59411,366.20622 C 171.69303,361.00231 171.97667,355.49585 171.53899,349.86917 L 171.53899,349.86917"
         id="path4297"
         style="fill:#ffffff;fill-opacity:1;fill-rule:evenodd;stroke:#000000;stroke-width:1px;stroke-linecap:butt;stroke-linejoin:miter;stroke-opacity:1" />
      <path
         d="M 176.5957,363.48337 C 177.88319,358.26687 177.33295,353.5098 176.98467,348.70224"
         id="path4299"
         style="fill:#ffffff;fill-opacity:1;fill-rule:evenodd;stroke:#000000;stroke-width:1px;stroke-linecap:butt;stroke-linejoin:miter;stroke-opacity:1" />
      <path
         d="M 187.64493,260.72293 A 2.2106471,1.4629283 0 1 1 183.22363,260.72293 A 2.2106471,1.4629283 0 1 1 187.64493,260.72293 z"
         id="path4333"
         style="opacity:1;fill:#ffffff;fill-opacity:1;stroke:#000000;stroke-width:1;stroke-linecap:round;stroke-linejoin:miter;stroke-miterlimit:4;stroke-dasharray:none;stroke-dashoffset:0;stroke-opacity:1" />
    </g>
    <path
       d="M 131.52852,232.08998 L 131.68477,364.65248 C 131.68477,420.07601 176.29248,464.68375 231.71602,464.68373 C 287.13955,464.68373 331.74729,420.076 331.74727,364.65248 L 331.90352,232.08998 L 131.52852,232.08998 z"
       id="path4357"
       style="opacity:1;fill:none;fill-opacity:1;stroke:#000000;stroke-width:4;stroke-linecap:round;stroke-linejoin:miter;stroke-miterlimit:4;stroke-dasharray:none;stroke-dashoffset:0;stroke-opacity:1" />
  </g>
</svg>

<svg xmlns="http://www.w3.org/2000/svg" version="1.0" width="204.375" height="236.594"><path d="m131.529 232.09.156 132.562c0 55.424 44.607 100.032 100.031 100.032 55.424 0 100.031-44.608 100.031-100.032l.157-132.562H131.529z" style="opacity:1;fill:#379ae4;fill-opacity:1;stroke:#000;stroke-width:4;stroke-linecap:round;stroke-linejoin:miter;stroke-miterlimit:4;stroke-dasharray:none;stroke-dashoffset:0;stroke-opacity:1" transform="translate(-129.529 -230.09)"/><path d="m131.531 232.094.156 132.562c0 54.933 43.822 99.22 98.563 100V232.094h-98.719z" style="opacity:1;fill:#ee2b2b;fill-opacity:1;stroke:#000;stroke-width:1;stroke-linecap:round;stroke-linejoin:miter;stroke-miterlimit:4;stroke-dasharray:none;stroke-dashoffset:0;stroke-opacity:1" transform="translate(-129.529 -230.09)"/><path d="M295.53 295.035s13.573 15.673 14.058 17.289c.485 1.616-7.11 35.548-7.433 35.87-.323.324-9.694-6.947-9.694-6.947l3.07-46.212zM263.376 325.735s-10.664 8.726-10.664 9.695c0 .97 4.2 36.517 6.625 36.356 2.423-.162 10.34-6.464 10.34-6.464l-6.301-39.587z" style="fill:#fff;fill-opacity:1;fill-rule:evenodd;stroke:#000;stroke-width:1px;stroke-linecap:butt;stroke-linejoin:miter;stroke-opacity:1" transform="translate(-129.529 -230.09)"/><path d="M272.762 259.018c0 4.312 1.064 9.908-4.207 21.386-4.104 8.937-9.72 28.507-7.73 48.417 1.991 19.91 8.944 53.715 10.752 58.138 2.684 6.568-17.985 36.061-18.318 35.839 11.442-1.59 22.765-2.596 28.167-27.242 5.256 32.928 17.043 27.588 27.98 27.242-2.913.749-21.423-18.198-17.919-35.042 1.953-9.39 5.973-43.803 5.973-52.165 0-8.363 0-38.228-.796-43.803-.797-5.575-1.991-13.937-5.575-19.114-3.584-5.177-8.461-16.476-8.461-16.476l-5.476 6.52-4.39-3.7z" style="fill:#fff;fill-opacity:1;fill-rule:evenodd;stroke:#000;stroke-width:1px;stroke-linecap:butt;stroke-linejoin:miter;stroke-opacity:1" transform="translate(-129.529 -230.09)"/><path d="M291.473 281.747a4.527 5.929 0 1 1-9.054 0 4.527 5.929 0 1 1 9.054 0z" transform="rotate(-19.684 -440.639 538.153)" style="fill:#fff;fill-opacity:1;stroke:#000;stroke-width:1;stroke-linecap:round;stroke-linejoin:miter;stroke-miterlimit:4;stroke-dasharray:none;stroke-dashoffset:0;stroke-opacity:1"/><path d="M265.84 288.105c6.73 9.076 20.892 11.63 30.835 5.49" style="fill:#fff;fill-opacity:1;fill-rule:evenodd;stroke:#000;stroke-width:1px;stroke-linecap:butt;stroke-linejoin:miter;stroke-opacity:1" transform="translate(-129.529 -230.09)"/><path d="M263.094 298.64c2.943 8.26 12.972 9.82 14.556-2.49-.382 10.448 11.578 17.788 11.747.255 1.125 8.727 4.928 15.32 7.725 3.639" style="fill:#fff;fill-opacity:1;fill-rule:evenodd;stroke:#000;stroke-width:1px;stroke-linecap:butt;stroke-linejoin:miter;stroke-opacity:1" transform="translate(-129.529 -230.09)"/><path d="M260.319 318.063c4.891 6.48 11.266 4.395 10.91-13.037-.17 17.503 10.902 23.787 10.634 1.167-.944 17.506 12.637 25.148 15.438 4.46" style="fill:#fff;fill-opacity:1;fill-rule:evenodd;stroke:#000;stroke-width:1px;stroke-linecap:butt;stroke-linejoin:miter;stroke-opacity:1" transform="translate(-129.529 -230.09)"/><path d="M260.9 329.245c1.912 8.56 14.687 7.985 13.797-9.721-1.251 17.183 11.373 19.984 12.961 2.927-.622 12.976 7.446 17.525 9.721 7.735" style="fill:#fff;fill-opacity:1;fill-rule:evenodd;stroke:#000;stroke-width:1px;stroke-linecap:butt;stroke-linejoin:miter;stroke-opacity:1" transform="translate(-129.529 -230.09)"/><path d="M261.735 337.607c1.943 19.824 18.788 13.858 17.77-3.972-.56 17.513 15.788 18.607 17.456 5.853" style="fill:#fff;fill-opacity:1;fill-rule:evenodd;stroke:#000;stroke-width:1px;stroke-linecap:butt;stroke-linejoin:miter;stroke-opacity:1" transform="translate(-129.529 -230.09)"/><path d="M264.767 354.018c2.064 17.464 11.143 7.92 8.675-5.122.652 18.611 11.857 18.83 11.29-1.986-1.791 16.84 8.822 24.016 11.08 6.167" style="fill:#fff;fill-opacity:1;fill-rule:evenodd;stroke:#000;stroke-width:1px;stroke-linecap:butt;stroke-linejoin:miter;stroke-opacity:1" transform="translate(-129.529 -230.09)"/><path d="M266.544 365.202c3.55 20.533 14.55 8.42 13.066-2.404.93 18.015 13.001 13.436 15.051 1.568" style="fill:#fff;fill-opacity:1;fill-rule:evenodd;stroke:#000;stroke-width:1px;stroke-linecap:butt;stroke-linejoin:miter;stroke-opacity:1" transform="translate(-129.529 -230.09)"/><path d="M269.784 379.627c4.194 9.163 12.006 12.659 11.707-7.735.71 10.941 6.939 20.211 11.184 5.749" style="fill:#fff;fill-opacity:1;fill-rule:evenodd;stroke:#000;stroke-width:1px;stroke-linecap:butt;stroke-linejoin:miter;stroke-opacity:1" transform="translate(-129.529 -230.09)"/><path d="M272.293 387.884c5.782 4.74 12.023 5.113 18.92-.731" style="fill:#fff;fill-opacity:1;fill-rule:evenodd;stroke:#000;stroke-width:1px;stroke-linecap:butt;stroke-linejoin:miter;stroke-opacity:1" transform="translate(-129.529 -230.09)"/><g style="fill:#fff"><path d="m177.194 373.8-1.59 49.523-8.178.682 18.855 5.68-5.907-4.09 6.588-.454-6.36-1.818 6.815-2.953-8.86 2.272 1.363-51.114-2.726 2.272z" style="fill:#fff;fill-rule:evenodd;stroke:#000;stroke-width:1px;stroke-linecap:butt;stroke-linejoin:miter;stroke-opacity:1" transform="translate(-129.529 -230.09)"/><path d="m196.958 356.99-12.267 39.754 9.768 27.943-6.588 1.135 19.537 4.544-5.452-3.408 6.815-1.59-7.724-.681 5.68-2.954-9.315 2.272-9.54-27.715 13.402-41.8-4.316 2.5z" style="fill:#fff;fill-rule:evenodd;stroke:#000;stroke-width:1px;stroke-linecap:butt;stroke-linejoin:miter;stroke-opacity:1" transform="translate(-129.529 -230.09)"/><path d="M212.77 268.184s-10.113-7.39-12.836-7.78c-2.723-.389-6.223-8.946-14.003-7.39s-12.836 13.225-12.836 22.95c0 9.724-.778 19.837-.778 19.837l4.668-9.335s14.003 20.227 14.003 24.116c0 3.89 4.279 7.78-4.668 11.28-8.946 3.502-24.116 8.947-25.283 17.894-1.167 8.946-3.112 40.842-3.112 40.842l8.557-6.223 1.945 14.78c-.314-.943 18.097-19.847 25.673-24.894 4.906-3.268 15.314-10.09 15.703-31.872.39-21.783-19.593-32.698-24.65-42.033-5.057-9.336-1.945-21.394-1.945-21.394s7.39.389 10.503-1.167l3.112-1.556 15.948 1.945z" style="fill:#fff;fill-opacity:1;fill-rule:evenodd;stroke:#000;stroke-width:1px;stroke-linecap:butt;stroke-linejoin:miter;stroke-opacity:1" transform="translate(-129.529 -230.09)"/><path d="M169.594 366.206c2.099-5.204 2.383-10.71 1.945-16.337M176.596 363.483c1.287-5.216.737-9.973.389-14.78" style="fill:#fff;fill-opacity:1;fill-rule:evenodd;stroke:#000;stroke-width:1px;stroke-linecap:butt;stroke-linejoin:miter;stroke-opacity:1" transform="translate(-129.529 -230.09)"/><path d="M187.645 260.723a2.21 1.463 0 1 1-4.421 0 2.21 1.463 0 1 1 4.42 0z" style="opacity:1;fill:#fff;fill-opacity:1;stroke:#000;stroke-width:1;stroke-linecap:round;stroke-linejoin:miter;stroke-miterlimit:4;stroke-dasharray:none;stroke-dashoffset:0;stroke-opacity:1" transform="translate(-129.529 -230.09)"/></g><path d="m131.529 232.09.156 132.562c0 55.424 44.607 100.032 100.031 100.032 55.424 0 100.031-44.608 100.031-100.032l.157-132.562H131.529z" style="opacity:1;fill:none;fill-opacity:1;stroke:#000;stroke-width:4;stroke-linecap:round;stroke-linejoin:miter;stroke-miterlimit:4;stroke-dasharray:none;stroke-dashoffset:0;stroke-opacity:1" transform="translate(-129.529 -230.09)"/></svg>
